X: 8010
T: Connaughtman's Rambles, The
R: jig
M: 6/8
K: Dmajor
|:FAA dAA|BAB dAG|FAA d2f|edB BAG|
F2A dAA|BAB def|gfe f3e|1 dBA B2G:|2 dBA B2g||
|:f2b faa|fed ede|f2b faa|fed e2z|
f2b faa|fed ede|f3 f2e|1 dBA B2g:|2 dBA B2G||

